X:1
T:Sprint Planning Session
M:4/4
L:1/8
K:C
% Opening: Requirements Analysis
C4 E4 G4 c4 | F4 A4 c4 f4 |
% Development: Implementation Phase  
G2B2 d2B2 | A2c2 e2c2 |
% Testing: Validation Harmonies
F2A2 c2A2 | E2G2 B2G2 |
% Completion: Integration Theme
C8 | G8 | F8 | C8 ||